Icons/Colored/ArrowLoad.svg

<svg xmlns="http://www.w3.org/2000/svg" xml:space="preserve" fill-rule="evenodd" stroke-linejoin="round" stroke-miterlimit="2" clip-rule="evenodd" viewBox="0 0 64 64">
  <g id="green">
    <path fill="#558e2f" fill-rule="nonzero" d="m18.871 30.059 13.387 13.238 12.871-13.238H39.18V6.227H25.492v23.832h-6.621Z"/>
  </g>
  <g id="grey">
    <path fill="#575757" fill-rule="nonzero" d="M10 36h11.082l11.285 11.121L43.094 36H54c2.195 0 4 1.805 4 4v14.773c0 2.196-1.805 4-4 4H10c-2.195 0-4-1.804-4-4V40c0-2.195 1.805-4 4-4Z"/>
  </g>
</svg>

<?xml version="1.0" encoding="UTF-8" standalone="no"?>
<!DOCTYPE svg PUBLIC "-//W3C//DTD SVG 1.1//EN" "http://www.w3.org/Graphics/SVG/1.1/DTD/svg11.dtd">
<svg width="100%" height="100%" viewBox="0 0 64 64" version="1.1" xmlns="http://www.w3.org/2000/svg" xmlns:xlink="http://www.w3.org/1999/xlink" xml:space="preserve" xmlns:serif="http://www.serif.com/" style="fill-rule:evenodd;clip-rule:evenodd;stroke-linejoin:round;stroke-miterlimit:2;">
    <g id="surface1">
        <path d="M10,36L21.082,36L32.367,47.121L43.094,36L54,36C56.195,36 58,37.805 58,40L58,54.773C58,56.969 56.195,58.773 54,58.773L10,58.773C7.805,58.773 6,56.969 6,54.773L6,40C6,37.805 7.805,36 10,36Z" style="fill:#575757;fill-rule:nonzero;"/>
        <path d="M18.871,30.059L32.258,43.297L45.129,30.059L39.18,30.059L39.18,6.227L25.492,6.227L25.492,30.059L18.871,30.059Z" style="fill:#558e2f;fill-rule:nonzero;"/>
    </g>
</svg>
